X: 1
T: Funicul\`i-Funicul\`a    [F]
C: Luigi D'Enza 1880
R: tarantella
M: 6/8
L: 1/8
Z: 1999 John Chambers <jc@trillian.mit.edu>
K: F
|: c \
| "F"f6- | f2f e2e \
| c2c d2d | A3 A3- \
| A2A "C7"G2F | "F"F6 \
| z2A "C7"G2F | "F"F6- | Fz2 z2 :|
   A \
| "Am"A6- | A2A "E7"=B2B \
| "Am"A2A "E7"=B2B | "Am"A3 A3- \
| A2E "E7"E2E | "Am"E6 \
| z2E "E7"E2E | "Am"E6- | Ez2 z2c |
| "C"c6- | c2c "G7"d2d \
| "C"c2c "G7"d2d | "C"c3 c3- \
| c2G "G7"G2G | "C"G6 \
| z2G "G7"G2G | "C"G6- | Gz2 z3 |
|: "C7"[e3c3] [dB]z2 | [e3c3] [dB]z2 \
| [f2d2][ec] [d2B2][fd] | [e3c3] z3 \
|  "C7"[e3c3] [dB]z2 | [e3c3] [dB]z2 \
| [f2d2][ec] [d2B2][fd] | "F"[c2A2][AF] [A2F2][AF] |
| "A7"[A2G2][AG] [A2G2][AG] | "Dm"[A2F2][AF] [A2F2][AF] \
| "A7"[A2G2][AG] [A2G2E2][AGE] | "Dm"[f6d6A6F6] \
| "Bb"[g2e2][fd] [d2B2][fd] | "F"[c2A2][AF] [A2F2][BG] \
| "C7"[c2A2][BG] [A2F2][GE] | "F"[F3F3] z3 :| Hz3 |]
